web/e2e/fixtures/render/lut.cube
LUT_3D_SIZE 2
0 0 0
1 0.05 0
0 0.95 0
1 1 0
0 0 0.9
1 0.05 0.9
0 0.95 0.9
1 1 0.9
